X:1
T:Wilhelm, LMD
T:Arranged from Karl Wilhelm
T:Wilhelm, LMD
T:Public Domain
C:Arranged from Karl Wilhelm
Z:Public Domain
%%score ( 1 2 ) ( 3 4 )
L:1/8
M:4/4
K:Bb
V:1 treble 
V:2 treble 
V:3 bass 
V:4 bass 
V:1
 F2 | B,3 D F2 F2 | D3 [DG] [DB]2 [DB]2 | [Ec]2 [Fd]2 [Ee]2 [Ec]2 | [DB]3 [CA] [CA]2 F2 | %5
 [Fd]3 [Fd] [Fc]>[Fc] [F=B]>[FB] | [Fc]6 [FA]2 | [FG]>[FG] [^FA]>[GB] [=FA]2 [=EG]2 | F6 F2 | %9
 [Ec]3 [DB] [FA]2 [FA]2 | [FB]3 [DF] [DF]2 F2 | [Fe]3 [Fd] [Fc]2 [Fc]2 | [Fd]3 [Ec] [DB]4 | %13
 [DF]4 [DF]2 [D^F]2 | ([EG]3 [FA] [DB]2) [DB]2 | [DB]4 [Gc]4 | [^Fd]8 | B4 [AB]2 [GB]2 | %18
 (B3 d f2) [Ge]2 | [Fd]4 [Ec]4 | [DB]6 |] %21
V:2
 F2 | B,3 D F2 F2 | D3 x5 | x8 | x6 F2 | x8 | x8 | x8 | F6 F2 | x8 | x6 F2 | x8 | x8 | x8 | x8 | %15
 x8 | x8 | B4 x4 | F6 x2 | x8 | x6 |] %21
V:3
 F,2 | B,,3 D, F,2 F,2 | D,3 [B,,F,] [G,,G,]2 G,2 | [E,G,]2 [D,=B,]2 [C,C]2 [E,G,]2 | %4
 F,3 F, F,2 F,2 | [B,,B,]3 [B,,B,] [C,A,]>[C,A,] [D,G,]>[D,G,] | [F,A,]6 [F,C]2 | %7
 [B,D]>[B,D] [A,D]>[G,D] C2 [C,B,]2 | [F,,A,]6 F,2 | [F,A,]3 [F,B,] [F,C]2 [F,E]2 | %10
 [B,,D]3 [B,,B,] [B,,B,]2 F,2 | [F,C]3 [F,B,] [F,A,]2 [F,,A,]2 | [B,,B,]3 [B,,F,] [B,,F,]4 | %13
 [B,,F,]4 [B,,F,]2 [B,,^F,]2 | ([E,G,]3 [C,A,] [B,,B,]2) [B,,B,]2 | [G,B,]4 [E,G,]4 | [D,A,]8 | %17
 [G,B,]4 [F,B,]2 [F,B,]2 | [D,B,]6 [E,B,]2 | [F,B,]4 [F,,A,]4 | [B,,B,]6 |] %21
V:4
 F,2 | B,,3 D, F,2 F,2 | D,3 G,2 x3 | x8 | F,3 F, F,2 F,2 | x8 | x8 | x4 C2 x2 | x6 F,2 | x8 | %10
 x6 F,2 | x8 | x8 | x8 | x8 | x8 | x8 | x8 | x8 | x8 | x6 |] %21

